src/icons/sun-cloud-rain.svg

<?xml version="1.0" encoding="UTF-8" standalone="no"?><svg viewBox="0 0 32 32" xmlns="http://www.w3.org/2000/svg" xmlns:xlink="http://www.w3.org/1999/xlink" xml:space="preserve" fill-rule="evenodd" clip-rule="evenodd" stroke-linejoin="round" stroke-miterlimit="2" fill="currentColor"><g transform="translate(-.624 .832)"><path d="M25.152 15.776c1.056.736 1.728 1.952 1.728 3.264-.064 2.048-1.824 3.84-4 3.84a.894.894 0 0 1-.896-.896c0-.48.416-.896.896-.896 1.184 0 2.144-.96 2.144-2.144 0-.832-.48-1.6-1.248-1.952-.384-.16-.576-.576-.512-.96.032-.256.064-.48.064-.704A4.14 4.14 0 0 0 19.2 11.2a4.11 4.11 0 0 0-3.232 1.568c.16.096.32.224.48.32a.92.92 0 0 1 .256 1.248.92.92 0 0 1-1.248.256c-.352-.224-.832-.512-1.312-.672a5 5 0 0 0-.704-.064 3.646 3.646 0 0 0-3.648 3.648 3.646 3.646 0 0 0 3.648 3.648c.512 0 .896.416.896.896s-.416.896-.896.896c-2.976 0-5.344-2.336-5.44-5.28 0-.096-.032-.16-.032-.256 0-1.888.96-3.52 2.4-4.512-.16-.416-.192-.832-.192-1.312a3.997 3.997 0 0 1 7.488-1.952A6.3 6.3 0 0 1 19.2 9.44c3.264 0 5.952 2.656 5.952 5.952zm-11.744-3.808c.288 0 .608.032.864.096.448-.704 1.056-1.248 1.728-1.696a2.18 2.18 0 0 0-1.824-.992 2.21 2.21 0 0 0-2.208 2.208c0 .256.032.416.064.576a4.8 4.8 0 0 1 1.376-.192m.768-5.472a.894.894 0 0 1-.896-.896v-.928c0-.512.416-.896.896-.896s.896.416.896.896V5.6a.875.875 0 0 1-.896.896M9.312 8l-.64-.64a.91.91 0 0 1 0-1.28.91.91 0 0 1 1.28 0l.64.64a.91.91 0 0 1 0 1.28.95.95 0 0 1-.64.256c-.224 0-.448-.096-.64-.256m-.224 3.584c0 .48-.384.896-.896.896h-.928a.894.894 0 0 1-.896-.896c0-.48.416-.896.896-.896h.928c.512 0 .896.416.896.896M18.4 8.256c-.224 0-.448-.096-.64-.256a.91.91 0 0 1 0-1.28l.64-.64a.91.91 0 0 1 1.28 0 .91.91 0 0 1 0 1.28l-.64.64a.9.9 0 0 1-.64.256m-.352 12.832c.48 0 .896.416.896.896v3.712c0 .48-.416.864-.896.864a.894.894 0 0 1-.896-.896v-3.68c0-.512.416-.896.896-.896m2.4 0c.48 0 .896.416.896.896v1.536c0 .48-.416.896-.896.896a.894.894 0 0 1-.896-.896v-1.536c0-.512.416-.896.896-.896m-4.8 0c.48 0 .896.416.896.896v1.536c0 .48-.416.896-.896.896a.894.894 0 0 1-.896-.896v-1.536c0-.512.416-.896.896-.896"/></g></svg>

<?xml version="1.0" encoding="UTF-8" standalone="no"?>
<!DOCTYPE svg PUBLIC "-//W3C//DTD SVG 1.1//EN" "http://www.w3.org/Graphics/SVG/1.1/DTD/svg11.dtd">
<svg width="100%" height="100%" viewBox="0 0 32 32" version="1.1" xmlns="http://www.w3.org/2000/svg" xmlns:xlink="http://www.w3.org/1999/xlink" xml:space="preserve" xmlns:serif="http://www.serif.com/" style="fill-rule:evenodd;clip-rule:evenodd;stroke-linejoin:round;stroke-miterlimit:2;">
    <g transform="matrix(1,0,0,1,-0.624,0.832)">
        <path d="M18.048,21.088C18.528,21.088 18.944,21.504 18.944,21.984L18.944,25.696C18.944,26.176 18.528,26.56 18.048,26.56C17.536,26.56 17.152,26.144 17.152,25.664L17.152,21.984C17.152,21.472 17.568,21.088 18.048,21.088ZM20.448,21.088C20.928,21.088 21.344,21.504 21.344,21.984L21.344,23.52C21.344,24 20.928,24.416 20.448,24.416C19.936,24.416 19.552,24 19.552,23.52L19.552,21.984C19.552,21.472 19.968,21.088 20.448,21.088ZM15.648,21.088C16.128,21.088 16.544,21.504 16.544,21.984L16.544,23.52C16.544,24 16.128,24.416 15.648,24.416C15.136,24.416 14.752,24 14.752,23.52L14.752,21.984C14.752,21.472 15.168,21.088 15.648,21.088Z"/>
    </g>
    <g transform="matrix(1,0,0,1,-0.624,0.832)">
        <path d="M25.152,15.776C26.208,16.512 26.88,17.728 26.88,19.04C26.816,21.088 25.056,22.88 22.88,22.88C22.368,22.88 21.984,22.464 21.984,21.984C21.984,21.504 22.4,21.088 22.88,21.088C24.064,21.088 25.024,20.128 25.024,18.944C25.024,18.112 24.544,17.344 23.776,16.992C23.392,16.832 23.2,16.416 23.264,16.032C23.296,15.776 23.328,15.552 23.328,15.328C23.328,13.056 21.472,11.2 19.2,11.2C17.888,11.2 16.736,11.808 15.968,12.768C16.128,12.864 16.288,12.992 16.448,13.088C16.864,13.376 16.96,13.92 16.704,14.336C16.416,14.752 15.872,14.848 15.456,14.592C15.104,14.368 14.624,14.08 14.144,13.92C13.92,13.888 13.664,13.856 13.44,13.856C11.424,13.856 9.792,15.488 9.792,17.504C9.792,19.52 11.424,21.152 13.44,21.152C13.952,21.152 14.336,21.568 14.336,22.048C14.336,22.528 13.92,22.944 13.44,22.944C10.464,22.944 8.096,20.608 8,17.664C8,17.568 7.968,17.504 7.968,17.408C7.968,15.52 8.928,13.888 10.368,12.896C10.208,12.48 10.176,12.064 10.176,11.584C10.176,9.376 11.968,7.584 14.176,7.584C15.648,7.584 16.96,8.384 17.664,9.632C18.176,9.504 18.688,9.44 19.2,9.44C22.464,9.44 25.152,12.096 25.152,15.392L25.152,15.776ZM13.408,11.968C13.696,11.968 14.016,12 14.272,12.064C14.72,11.36 15.328,10.816 16,10.368C15.616,9.76 14.912,9.376 14.176,9.376C12.96,9.376 11.968,10.368 11.968,11.584C11.968,11.84 12,12 12.032,12.16C12.448,12.032 12.928,11.968 13.408,11.968ZM14.176,6.496C13.664,6.496 13.28,6.08 13.28,5.6L13.28,4.672C13.28,4.16 13.696,3.776 14.176,3.776C14.656,3.776 15.072,4.192 15.072,4.672L15.072,5.6C15.072,6.112 14.688,6.496 14.176,6.496ZM9.312,8L8.672,7.36C8.32,7.008 8.32,6.432 8.672,6.08C9.024,5.728 9.6,5.728 9.952,6.08L10.592,6.72C10.944,7.072 10.944,7.648 10.592,8C10.432,8.16 10.176,8.256 9.952,8.256C9.728,8.256 9.504,8.16 9.312,8ZM9.088,11.584C9.088,12.064 8.704,12.48 8.192,12.48L7.264,12.48C6.752,12.48 6.368,12.064 6.368,11.584C6.368,11.104 6.784,10.688 7.264,10.688L8.192,10.688C8.704,10.688 9.088,11.104 9.088,11.584ZM18.4,8.256C18.176,8.256 17.952,8.16 17.76,8C17.408,7.648 17.408,7.072 17.76,6.72L18.4,6.08C18.752,5.728 19.328,5.728 19.68,6.08C20.032,6.432 20.032,7.008 19.68,7.36L19.04,8C18.88,8.16 18.656,8.256 18.4,8.256Z"/>
    </g>
</svg>
